X: 20882
Q: "With energy but not to quick."
M: C
L: 1/8
K: C
c3c dddd | (e>d)cz zedc |\
c3c dddd | (e>d)c2 zGGG |\
d3d eeee | (f>e)d2 zddd |\
e2c2 AAdd | G2z2 zGGA |
c3c cce>c | B2z2 zGGA |\


